X:1
T:Title
%%score { ( 1 3 5 ) | ( 2 4 ) }
L:1/8
M:4/4
K:G
V:1 treble nm="Grand Piano"
V:3 treble 
V:5 treble 
V:2 bass 
V:4 bass 
V:1
 z4 z[Q:1/4=100] BAB | G6 z2 | F6 z2 | A6 z2 | z B,B,B, B,BAB | G6 z2 | c6[K:bass][K:treble] z2 | %7
 G6 z2 |[M:5/8] G-G- G3 |[M:3/8] BdB |[M:4/4] d6 z2 | E>[EG] z C Ccec | d6 z2 | %13
 [FA]>[GB] z D DBAB | G6 z2 | c6[K:bass][K:treble] z2 | G6 z2 | %17
[M:11/16] G/-G/-G/-G/-G/-G/-G/-G-<G |] %18
V:2
 z8 | z [G,B,][G,B,][G,B,] .[G,B,]2 z2 | z [D,A,][D,A,][D,A,] .[D,A,]2 z2 | %3
 z [D,F,][D,F,][D,F,] .[D,F,]2 z2 | z [G,,G,][G,,G,][G,,G,] .[G,,G,]2 z2 | %5
 z [G,,D,][G,,D,][G,,D,] [G,,G,]B,CD | E6 z2 | z4 z2 .D2 |[M:5/8] G,,2 G,,2 G,, | %9
[M:3/8][K:treble] GBG |[M:4/4] B6[K:bass] z2 | [C,G,B,]>[C,C] [C,C]C, C,[K:treble]EGA | %12
 B6[K:bass] z2 | [D,D]>[D,D] [D,D]D, .D,2 z2 | z [G,,D,][G,,D,][G,,D,] [G,,G,]B,CD | E6 z2 | %16
 z4 z2 .D2 |[M:11/16] G,,-<G,,G,,-<G,,G,,3/2 |] %18
V:3
 x8 | z DDD DDDE | z CCC CcBc | z CCC CEFE | D6 z2 | z B,B,B, B,GAB | %6
 z[K:bass] G,G,G, G,E[K:treble]BA | z B,ED z FBA |[M:5/8] [G,B,]2 [E,C]2 [D,B,] |[M:3/8] x3 | %10
[M:4/4] z DDD DBAG | z2 [EG]4 z2 | z DDD D[DGB][DFA][DG] | z2 [FA]4 z2 | z B,B,B, B,GAB | %15
 z[K:bass] G,G,G, G,E[K:treble]BA | z B,ED z FBA |[M:11/16] [G,B,]-<[G,B,][E,C]-<[E,C][D,B,]3/2 |] %18
V:4
 x8 | x8 | x8 | x8 | x8 | x8 | z C,C,C, .C,2 z2 | z [D,G,][D,C][D,B,] [D,A,]2 [D,F,]-[D,F,C] | %8
[M:5/8] x5 |[M:3/8][K:treble] x3 |[M:4/4] z G,G,G, G,[G,DG][K:bass][G,CD][G,B,D] | %11
 x5[K:treble] x3 | z G,[K:bass]G,G, G,G,,A,,B,, | x8 | x8 | z C,C,C, .C,2 z2 | %16
 z [D,G,][D,C][D,B,] [D,A,]2 [D,F,]-[D,F,C] |[M:11/16] x11/2 |] %18
V:5
 x8 | x8 | x8 | x8 | x8 | x8 | x[K:bass] x5[K:treble] x2 | z4 C2 z2 |[M:5/8] x5 |[M:3/8] x3 | %10
[M:4/4] x8 | x8 | x8 | x8 | x8 | x[K:bass] x5[K:treble] x2 | z4 C2 z2 |[M:11/16] x11/2 |] %18

